X: 72
T: The Jovial Tar
R: reel
M: 2/4
L: 1/16
Z: 2012 John Chambers <jc:trillian.mit.edu>
B: Saml. Ann & Peter Thompson "Twenty Four Country Dances for the Year 1791", London 1791, p.36 #2
K: C
% - - - - - - - - - - - - - - - - - - - - - - - - -
|:\
(cBcd) c2G2 | (efef) e2c2 | gfga g2a2 | (g2f2)(f2e2) |\
(cBcd) c2G2 | (efef) e2c2 | gfga g2f2 | e2d2 c4 :|
|:\
(GAGA) G2F2 | E2F2G2c2 | B2c2d2g2 | Te4 d4 |\
(GAGA) G2F2 | E2F2G2c2 | g2f2e2d2 | (d4 c4) :|
% - - - - - - - - Dance description - - - - - - - -

